X:1
T:Title
%%score 1 2
L:1/8
Q:1/4=135
M:3/4
K:F
V:1 treble nm="Grand Piano, Soprano"
V:2 bass nm="Choir Pad, Alleyne, J. T. Nickens, 1910"
V:1
 [FA]2 [FA]4 | [EG]2 F4 | [Fc]2 [Ec]4 | [EB]2 [FA]4 | [CF]2 [=B,F]4 | [=B,F]2 [_B,G]4 | %6
w: By~J.~T.~Nickens,~1910 *||||||
 [B,C]2 [CA]4- | [CA]6 | [Fc]2 [Fc]4 | [Af]2 [Be]4 | [EB]2 [FA]4 | [Fd]2 [^Fd]4 | [^FA]2 [Gc]4 | %13
w: |||||||
 [GB]2 [EA]4 | [EG]2 [CF]4- | [CF]6 |] %16
w: |||
V:2
 [F,C]2 [F,C]4 | [B,C]2 [A,C]4 | [A,C]2 [G,C]4 | [C,C]2 [F,C]4 | [F,A,]2 [D,G,]4 | %5
 [D,G,]2 [C,E,]4 | [C,E,]2 [F,,F,]4- | [F,,F,]6 | [F,A,]2 [F,A,]4 | [F,C]2 [G,C]4 | [C,C]2 [F,C]4 | %11
 [F,A,]2 [D,A,]4 | [D,C]2 [G,B,]4 | [G,D]2 [C,C]4 | [C,B,]2 [F,A,]4- | [F,A,]6 |] %16

